Simply black circles/scalable/mimes/text-x-apport.svg

<?xml version="1.0" encoding="UTF-8" standalone="no"?>
<!-- Created with Inkscape (http://www.inkscape.org/) -->

<svg
   xmlns:dc="http://purl.org/dc/elements/1.1/"
   xmlns:cc="http://creativecommons.org/ns#"
   xmlns:rdf="http://www.w3.org/1999/02/22-rdf-syntax-ns#"
   xmlns:svg="http://www.w3.org/2000/svg"
   xmlns="http://www.w3.org/2000/svg"
   xmlns:xlink="http://www.w3.org/1999/xlink"
   xmlns:sodipodi="http://sodipodi.sourceforge.net/DTD/sodipodi-0.dtd"
   xmlns:inkscape="http://www.inkscape.org/namespaces/inkscape"
   version="1.1"
   width="48"
   height="48"
   id="svg21744"
   sodipodi:docname="text-x-apport.svg"
   inkscape:version="0.92.3 (2405546, 2018-03-11)">
  <sodipodi:namedview
     pagecolor="#ffffff"
     bordercolor="#666666"
     borderopacity="1"
     objecttolerance="10"
     gridtolerance="10"
     guidetolerance="10"
     inkscape:pageopacity="0"
     inkscape:pageshadow="2"
     inkscape:window-width="1366"
     inkscape:window-height="690"
     id="namedview44"
     showgrid="false"
     inkscape:zoom="7.2920387"
     inkscape:cx="1.3575758"
     inkscape:cy="24"
     inkscape:window-x="0"
     inkscape:window-y="28"
     inkscape:window-maximized="1"
     inkscape:current-layer="svg21744"
     inkscape:snap-global="false" />
  <defs
     id="defs21746">
    <linearGradient
       x1="525.4375"
       y1="836.1875"
       x2="516.65625"
       y2="828.5"
       id="linearGradient14113"
       xlink:href="#linearGradient14494-2-7"
       gradientUnits="userSpaceOnUse"
       gradientTransform="translate(-125.5,-1702.64)" />
    <linearGradient
       id="linearGradient14494-2-7">
      <stop
         id="stop14496-9-3"
         style="stop-color:#dc85e9;stop-opacity:1"
         offset="0" />
      <stop
         id="stop14498-9-7"
         style="stop-color:#f2cbf8;stop-opacity:1"
         offset="1" />
    </linearGradient>
    <linearGradient
       x1="520.58502"
       y1="735.05206"
       x2="516.15179"
       y2="720.86298"
       id="linearGradient14115"
       xlink:href="#linearGradient14494-5"
       gradientUnits="userSpaceOnUse" />
    <linearGradient
       id="linearGradient14494-5">
      <stop
         id="stop14496-5"
         style="stop-color:#dc85e9;stop-opacity:1"
         offset="0" />
      <stop
         id="stop14498-1"
         style="stop-color:#f2cbf8;stop-opacity:1"
         offset="1" />
    </linearGradient>
    <linearGradient
       x1="525.4375"
       y1="836.1875"
       x2="516.65625"
       y2="828.5"
       id="linearGradient54948"
       xlink:href="#linearGradient14494-2-7"
       gradientUnits="userSpaceOnUse"
       gradientTransform="translate(-462.50049,-802.00385)" />
    <linearGradient
       x1="520.58502"
       y1="735.05206"
       x2="516.15179"
       y2="720.86298"
       id="linearGradient14109"
       xlink:href="#linearGradient14494-5"
       gradientUnits="userSpaceOnUse"
       gradientTransform="matrix(0.512535,0,0,0.615385,-202.35949,-422.92385)" />
    <linearGradient
       x1="525.4375"
       y1="836.1875"
       x2="516.65625"
       y2="828.5"
       id="linearGradient54952"
       xlink:href="#linearGradient14494-2-7"
       gradientUnits="userSpaceOnUse"
       gradientTransform="translate(-462.50049,-797.50385)" />
    <linearGradient
       x1="209.0625"
       y1="-765.46082"
       x2="209.0625"
       y2="-781.62268"
       id="linearGradient44039"
       xlink:href="#linearGradient15606-1"
       gradientUnits="userSpaceOnUse"
       gradientTransform="matrix(1.5,0,0,1.5,-364.99949,1176.9562)" />
    <linearGradient
       id="linearGradient15606-1">
      <stop
         id="stop15608-0"
         style="stop-color:#ffffff;stop-opacity:0.58823502"
         offset="0" />
      <stop
         id="stop15610-5"
         style="stop-color:#ffffff;stop-opacity:0.86274499"
         offset="1" />
    </linearGradient>
    <linearGradient
       x1="294.3429"
       y1="256.58133"
       x2="294.41818"
       y2="243.13852"
       id="linearGradient44042"
       xlink:href="#linearGradient10286-3"
       gradientUnits="userSpaceOnUse"
       gradientTransform="matrix(2.99213,0,0,3.00466,-830.71149,-727.44385)" />
    <linearGradient
       id="linearGradient10286-3">
      <stop
         id="stop10288-8"
         style="stop-color:#b3b3b3;stop-opacity:1"
         offset="0" />
      <stop
         id="stop10290-7"
         style="stop-color:#e6e6e6;stop-opacity:1"
         offset="1" />
    </linearGradient>
    <linearGradient
       x1="110.96875"
       y1="976.29968"
       x2="110.96875"
       y2="992.375"
       id="linearGradient43236"
       xlink:href="#linearGradient4145-42"
       gradientUnits="userSpaceOnUse" />
    <linearGradient
       id="linearGradient4145-42">
      <stop
         id="stop4953"
         style="stop-color:#e694bb;stop-opacity:1"
         offset="0" />
      <stop
         id="stop4955"
         style="stop-color:#d3819a;stop-opacity:1"
         offset="0.26238" />
      <stop
         id="stop4957"
         style="stop-color:#b25a64;stop-opacity:1"
         offset="0.704952" />
      <stop
         id="stop4959"
         style="stop-color:#98313d;stop-opacity:1"
         offset="1" />
    </linearGradient>
    <linearGradient
       x1="110.96875"
       y1="976.29968"
       x2="110.99982"
       y2="991.87488"
       id="linearGradient14097-7"
       xlink:href="#linearGradient4145-42"
       gradientUnits="userSpaceOnUse"
       gradientTransform="matrix(1,0,0,1.00011,0,-0.10551)" />
    <linearGradient
       x1="110.96875"
       y1="976.29968"
       x2="110.96875"
       y2="992.375"
       id="linearGradient21742"
       xlink:href="#linearGradient4145-42"
       gradientUnits="userSpaceOnUse"
       gradientTransform="matrix(1.00399,0,0,1.00959,-1.1658,-9.36636)" />
    <clipPath
       clipPathUnits="userSpaceOnUse"
       id="clipPath867">
      <g
         inkscape:label="Clip"
         id="use869">
        <path
           d="m 47.000614,3.0210706 v 0.75 40.5000404 0.72723 h 0.75 32.499399 0.75 v -0.72723 -25.50003 -0.3282 l -0.2344,-0.2343 -14.9059,-15.0000104 -0.1875,-0.1875 h -0.3282 -17.593399 z"
           id="path875"
           style="color:#000000;font-style:normal;font-variant:normal;font-weight:normal;font-stretch:normal;font-size:medium;line-height:normal;font-family:'Andale Mono';text-indent:0pt;text-align:start;text-decoration:none;text-decoration-line:none;letter-spacing:normal;word-spacing:normal;text-transform:none;direction:ltr;text-anchor:start;display:inline;overflow:visible;visibility:visible;fill:#000000;fill-opacity:1;fill-rule:nonzero;stroke:none;stroke-width:1;marker:none"
           inkscape:connector-curvature="0" />
      </g>
    </clipPath>
  </defs>
  <metadata
     id="metadata21749">
    <rdf:RDF>
      <cc:Work
         rdf:about="">
        <dc:format>image/svg+xml</dc:format>
        <dc:type
           rdf:resource="http://purl.org/dc/dcmitype/StillImage" />
        <dc:title></dc:title>
      </cc:Work>
    </rdf:RDF>
  </metadata>
  <path
     style="color:#000000;font-style:normal;font-variant:normal;font-weight:normal;font-stretch:normal;font-size:medium;line-height:normal;font-family:'Andale Mono';text-indent:0pt;text-align:start;text-decoration:none;text-decoration-line:none;letter-spacing:normal;word-spacing:normal;text-transform:none;direction:ltr;text-anchor:start;display:inline;overflow:visible;visibility:visible;fill:#1a1a1a;fill-opacity:1;stroke:none;stroke-width:5.99873972;marker:none"
     d="M 29.705078 -0.083984375 C 27.658234 -0.075805254 25.583576 0.00449542 25.1875 0.013671875 L 7 0.013671875 C 6.813106 -0.004321175 6.624454 -0.004321175 6.4375 0.013671875 C 5.062346 0.27607036 3.975341 1.6123101 4 3.0117188 L 4 45 C 4.00015 46.570313 5.429312 47.99985 7 48 L 41 48 C 42.570687 47.99985 43.99985 46.570313 44 45 L 44 18.818359 C 44.018 18.026395 44.215294 8.8914456 43.664062 8.3222656 L 34.054688 0.24804688 C 33.770027 -0.027426575 31.751922 -0.092163496 29.705078 -0.083984375 z M 31.195312 3.0097656 L 31.328125 10.513672 C 31.340155 11.195372 31.966379 11.80479 32.644531 11.792969 L 40.416016 11.65625 C 40.548988 11.674363 40.684161 11.672765 40.816406 11.650391 L 40.898438 14.679688 L 41 18.771484 L 41 44.271484 L 41 44.998047 L 40.25 44.998047 L 7.75 44.998047 L 7 44.998047 L 7 44.271484 L 7 3.7714844 L 7 3.0214844 L 7.75 3.0214844 L 25.34375 3.0214844 L 25.671875 3.0214844 L 31.195312 3.0097656 z M 23.21875 3.9863281 C 18.955439 3.9237834 22.578465 12.8292 22.357422 12.78125 C 22.136387 12.733304 22.600736 15.412567 22.089844 15.412109 C 21.57895 15.411656 20.576212 15.701408 19.482422 14.773438 C 18.388636 13.845465 19.110127 10.639411 16.734375 11.486328 C 14.358618 12.333245 18.084435 14.58318 18.75 15.330078 C 19.415555 16.076979 19.015699 16.277962 18.816406 16.685547 C 18.671834 16.981245 18.20911 17.12827 18.009766 17.255859 C 17.810421 17.383449 16.585146 18.032703 16.189453 17.654297 C 14.240963 15.790902 11.477319 12.633218 10.146484 15.296875 C 8.8156529 17.960535 15.358261 17.862214 16.414062 18.806641 C 17.469864 19.751067 17.201919 20.673745 17.199219 21.183594 C 17.196488 21.693446 17.098071 22.410797 15.332031 23.123047 C 13.565992 23.835297 6.7844238 23.333458 8.6816406 26.033203 C 10.578852 28.732953 14.894686 24.463999 15.708984 24.640625 C 16.523281 24.817253 17.858714 25.638651 18.214844 26.789062 C 18.570975 27.939474 15.984668 29.648744 16.832031 29.916016 C 18.151328 30.332139 18.582051 27.291679 19.273438 27.355469 C 19.964821 27.419259 20.861047 27.207233 21.539062 27.78125 C 23.920547 29.797458 19.588619 36.736899 23.056641 36.476562 C 26.524661 36.216228 23.584824 30.034036 24.28125 29.195312 C 24.977678 28.356592 24.926607 27.706579 25.4375 27.707031 C 25.9484 27.707479 25.486482 28.247199 26.300781 28.423828 C 27.115077 28.600454 26.349575 33.975826 28.65625 33.197266 C 30.962923 32.418702 26.839311 27.516375 27.240234 27.259766 C 27.641155 27.003158 28.675656 27.42615 29.048828 27.072266 C 29.601702 26.547949 29.525185 25.832479 29.947266 26.148438 C 30.369347 26.4644 31.426167 30.822356 32.832031 29.765625 C 34.355101 28.62079 31.476337 27.210026 30.589844 25.939453 C 30.164036 25.329151 30.884175 24.694569 30.992188 24.636719 C 31.604806 24.308276 31.915181 24.926743 32.304688 24.566406 C 32.801794 24.106513 31.921906 23.597773 32.445312 23.400391 C 33.756978 22.905768 36.245301 25.372562 36.644531 23.464844 C 37.043766 21.557132 33.696645 22.551779 32.171875 22.373047 C 31.088272 22.24603 30.308698 21.805079 30.085938 21.003906 C 29.92788 20.435436 29.580794 20.098256 30.849609 19.398438 C 32.11842 18.698619 36.693719 19.148101 35.923828 16.849609 C 35.875668 16.705979 35.820459 16.584028 35.755859 16.486328 C 34.787306 15.020496 32.05371 18.453497 30.201172 18.699219 C 28.225134 18.961322 28.222576 18.051623 28.525391 17.5625 C 28.828205 17.073374 33.143463 14.971294 31.046875 13.443359 C 29.501935 12.317453 28.512644 16.276264 27.529297 16.660156 C 24.523949 17.833424 23.48733 13.848464 23.873047 12.814453 C 24.258761 11.780437 27.482062 4.0488741 23.21875 3.9863281 z "
     id="path14075" />
</svg>

<svg xmlns="http://www.w3.org/2000/svg" width="48" height="48"><defs><linearGradient id="a"><stop offset="0" stop-color="#dc85e9"/><stop offset="1" stop-color="#f2cbf8"/></linearGradient><linearGradient id="b"><stop offset="0" stop-color="#dc85e9"/><stop offset="1" stop-color="#f2cbf8"/></linearGradient><linearGradient id="c"><stop offset="0" stop-color="#fff" stop-opacity=".588"/><stop offset="1" stop-color="#fff" stop-opacity=".863"/></linearGradient><linearGradient id="d"><stop offset="0" stop-color="#b3b3b3"/><stop offset="1" stop-color="#e6e6e6"/></linearGradient><linearGradient id="e"><stop offset="0" stop-color="#e694bb"/><stop offset=".262" stop-color="#d3819a"/><stop offset=".705" stop-color="#b25a64"/><stop offset="1" stop-color="#98313d"/></linearGradient></defs><path style="line-height:normal;text-indent:0;text-align:start;text-decoration-line:none;text-transform:none;marker:none" d="M29.705-.084c-2.047.008-4.121.088-4.517.098H7a2.938 2.938 0 0 0-.563 0C5.063.276 3.975 1.612 4 3.012V45c0 1.57 1.43 3 3 3h34c1.57 0 3-1.43 3-3V18.818c.018-.792.215-9.927-.336-10.496L34.054.248c-.284-.275-2.302-.34-4.349-.332zm1.49 3.094l.133 7.504c.012.681.638 1.29 1.317 1.279l7.771-.137c.133.018.268.017.4-.006l.082 3.03L41 18.77v26.227H7V3.021h18.672l5.523-.011zm-7.976.976c-4.264-.062-.64 8.843-.862 8.795-.22-.048.244 2.632-.267 2.631-.511 0-1.514.29-2.608-.639-1.093-.928-.372-4.134-2.748-3.287-2.375.847 1.35 3.097 2.016 3.844.666.747.266.948.066 1.356-.144.295-.607.442-.806.57-.2.127-1.425.777-1.82.398-1.949-1.863-4.713-5.02-6.044-2.357-1.33 2.664 5.212 2.565 6.268 3.51 1.056.944.788 1.867.785 2.377-.003.51-.1 1.227-1.867 1.939-1.766.712-8.548.21-6.65 2.91 1.897 2.7 6.213-1.569 7.027-1.392.814.176 2.15.998 2.506 2.148.356 1.15-2.23 2.86-1.383 3.127 1.32.416 1.75-2.624 2.441-2.56.692.063 1.588-.149 2.266.425 2.382 2.016-1.95 8.956 1.518 8.696 3.468-.26.528-6.443 1.224-7.282.697-.838.646-1.488 1.157-1.488.51 0 .048.54.863.717.814.176.049 5.552 2.355 4.773 2.307-.778-1.817-5.68-1.416-5.937.401-.257 1.436.166 1.809-.188.553-.524.476-1.24.898-.924.422.316 1.48 4.674 2.885 3.618 1.523-1.145-1.356-2.556-2.242-3.827-.426-.61.294-1.244.402-1.302.613-.329.923.29 1.313-.07.497-.46-.383-.97.14-1.167 1.312-.494 3.8 1.973 4.2.065.399-1.908-2.948-.913-4.473-1.092-1.084-.127-1.863-.568-2.086-1.37-.158-.568-.505-.905.764-1.605 1.268-.7 5.844-.25 5.074-2.548a1.561 1.561 0 0 0-.168-.364c-.969-1.466-3.702 1.967-5.555 2.213-1.976.262-1.978-.647-1.676-1.137.303-.489 4.618-2.59 2.522-4.119-1.545-1.126-2.534 2.833-3.518 3.217-3.005 1.173-4.042-2.812-3.656-3.846.386-1.034 3.61-8.765-.654-8.828z" color="#000" font-weight="400" font-family="Andale Mono" overflow="visible" fill="#1a1a1a"/></svg>
